icons/mobile/24/svg/notification-dot-24.svg

<svg width="24" height="24" viewBox="0 0 24 24" fill="none" xmlns="http://www.w3.org/2000/svg">
<path d="M13.251 19.9023C12.843 19.9665 12.4249 20 12 20C11.5751 20 11.157 19.9665 10.749 19.9023L11.0205 18.1738C11.339 18.2239 11.6664 18.25 12 18.25C12.3336 18.25 12.661 18.2239 12.9795 18.1738L13.251 19.9023Z" fill="black"/>
<path d="M8.06738 16.8574C8.57287 17.2672 9.14303 17.6 9.75977 17.8369L9.44531 18.6533L9.13184 19.4707C8.34091 19.1669 7.61097 18.7406 6.96484 18.2168L8.06738 16.8574Z" fill="black"/>
<path d="M17.0352 18.2168C16.389 18.7406 15.6591 19.1669 14.8682 19.4707L14.5547 18.6533L14.2402 17.8369C14.857 17.6 15.4271 17.2672 15.9326 16.8574L17.0352 18.2168Z" fill="black"/>
<path d="M6.16309 14.2402C6.4 14.857 6.73276 15.4271 7.14258 15.9326L5.7832 17.0352C5.25936 16.389 4.83312 15.6591 4.5293 14.8682L5.34668 14.5547L6.16309 14.2402Z" fill="black"/>
<path d="M18.6533 14.5547L19.4707 14.8682C19.1669 15.6591 18.7406 16.389 18.2168 17.0352L16.8574 15.9326C17.2672 15.4271 17.6 14.857 17.8369 14.2402L18.6533 14.5547Z" fill="black"/>
<path d="M5.82617 11.0205C5.77613 11.339 5.75 11.6664 5.75 12C5.75 12.3336 5.77613 12.661 5.82617 12.9795L4.09766 13.251C4.03354 12.843 4 12.4249 4 12C4 11.5751 4.03354 11.157 4.09766 10.749L5.82617 11.0205Z" fill="black"/>
<path d="M19.9023 10.749C19.9665 11.157 20 11.5751 20 12C20 12.4249 19.9665 12.843 19.9023 13.251L18.1738 12.9795C18.2239 12.661 18.25 12.3336 18.25 12C18.25 11.6664 18.2239 11.339 18.1738 11.0205L19.9023 10.749Z" fill="black"/>
<path d="M7.14258 8.06738C6.73276 8.57287 6.4 9.14303 6.16309 9.75977L5.34668 9.44531L4.5293 9.13184C4.83312 8.34091 5.25936 7.61097 5.7832 6.96484L7.14258 8.06738Z" fill="black"/>
<path d="M18.2168 6.96484C18.7406 7.61097 19.1669 8.34091 19.4707 9.13184L18.6533 9.44531L17.8369 9.75977C17.6 9.14303 17.2672 8.57287 16.8574 8.06738L18.2168 6.96484Z" fill="black"/>
<path d="M9.44531 5.34668L9.75977 6.16309C9.14303 6.4 8.57287 6.73276 8.06738 7.14258L6.96484 5.7832C7.61097 5.25936 8.34091 4.83312 9.13184 4.5293L9.44531 5.34668Z" fill="black"/>
<path d="M14.8682 4.5293C15.6591 4.83312 16.389 5.25936 17.0352 5.7832L15.9326 7.14258C15.4271 6.73276 14.857 6.4 14.2402 6.16309L14.5547 5.34668L14.8682 4.5293Z" fill="black"/>
<path d="M12 4C12.4249 4 12.843 4.03354 13.251 4.09766L12.9795 5.82617C12.661 5.77613 12.3336 5.75 12 5.75C11.6664 5.75 11.339 5.77613 11.0205 5.82617L10.749 4.09766C11.157 4.03354 11.5751 4 12 4Z" fill="black"/>
</svg>

<!-- This Source Code Form is subject to the terms of the Mozilla Public
   - License, v. 2.0. If a copy of the MPL was not distributed with this
   - file, You can obtain one at http://mozilla.org/MPL/2.0/. -->
<svg xmlns="http://www.w3.org/2000/svg" width="24" height="24" fill="none" viewBox="0 0 24 24">
    <path fill="#000" d="M13.251 19.902a8 8 0 0 1-2.502 0l.271-1.728a6.3 6.3 0 0 0 1.96 0zm-5.184-3.045a6.3 6.3 0 0 0 1.693.98l-.315.816-.313.818a8 8 0 0 1-2.167-1.254zm8.968 1.36a8 8 0 0 1-2.167 1.254l-.313-.818-.315-.816a6.2 6.2 0 0 0 1.693-.98zM6.163 14.24a6.3 6.3 0 0 0 .98 1.693l-1.36 1.102a8 8 0 0 1-1.254-2.167l.818-.313zm12.49.315.818.313a8 8 0 0 1-1.254 2.167l-1.36-1.102a6.3 6.3 0 0 0 .98-1.693zM5.826 11.02a6.3 6.3 0 0 0 0 1.96l-1.728.271a8 8 0 0 1 0-2.502zm14.076-.271a8 8 0 0 1 0 2.502l-1.728-.271a6.3 6.3 0 0 0 0-1.96zM7.143 8.067a6.2 6.2 0 0 0-.98 1.693l-.816-.315-.818-.313a8 8 0 0 1 1.254-2.167zm11.074-1.102c.524.646.95 1.376 1.254 2.167l-.818.313-.816.315a6.2 6.2 0 0 0-.98-1.693zM9.445 5.347l.315.816a6.2 6.2 0 0 0-1.693.98l-1.102-1.36A8 8 0 0 1 9.132 4.53zm5.423-.817a8 8 0 0 1 2.167 1.253l-1.102 1.36a6.2 6.2 0 0 0-1.693-.98l.315-.816zM12 4q.638.001 1.251.098l-.271 1.728a6.3 6.3 0 0 0-1.96 0l-.271-1.728A8 8 0 0 1 12 4" />
</svg>
